X:1
T:Ja sau i sta
C:KOMPOSITR
R:LTTYP
Z:Patrik Mnsson, 2008-10-08
O:GEOGRAFISK HRKOMST
M:3/4
L:1/8
K:G
|: D | G>G G2 DG | B>B B2 GB | d>d cB AB | cd B3 :|
|: B | d>d cB AB | c>d B2 G>G | B>B AF DF | AB G3 :|
